!!!OTL: Der Dollinger.
!!!OTL-incipit: ES REIT DER TUERK AUS TUERKENLAND NACH REGENSBURG IN DIE STADT
!!!ARE: Europa, Mitteleuropa, Deutschland, Franken
!!!SCT: Z1056
!!!TXL: @@DE
!!!YEM: Copyright 1995, estate of Helmut Schaffrath.
**kern	**text
*ICvox	*
*M4/4	*
*met(c)	*
*k[b-e-]	*
*g:	*
!LO:TX:a:t=Aus Franken.	!
{4d	Es
=1	=1
4g	reit't
4g	der
4g	Türk
8gL	aus
8aJ	.
=2	=2
4.b-	Tür-
8b-	-ken-
4.b-}	-land
{8ee-	nach
=3	=3
4dd	Re-
8cc	-gens-
8b-	-burg
8aL	in
8gJ	.
8f#L	die
8gJ	.
=4	=4
4a	Stadt,
4r	.
4r}	.
{8gL	da
8aJ	.
=5	=5
4b-	war
4b-	ein
4b-	gro-
8ccL	-ßes
8b-J	.
=6	=6
8b-L	Rin-
8aJ	.
4a	-gel-
4a}	-reihn,
{8b-L	da
8aJ	.
=7	=7
8aL	war
8gJ	.
4g	ein
8gL	gro-
8b-J	.
8aL	-ßes
8gJ	.
=8	=8
8gL	Rin-
8f#J	.
4f#	-gel-
4f#}	-reihn,
{8ddL	das
8b-J	.
=9	=9
4g	war
4g	ihm
4a	wohl
4a	be-
=10	=10
(4.b-	-kannt,
8cc	.
4dd)}	.
{8ddL	das
8b-J	.
=11	=11
4g	war
4g	ihm
8b-L	wohl
8aJ	.
8gL	be-
8f#J	.
=12	=12
2g	-kannt.
4r}	.
==	==
!!!AGN: Romanze, Ballade
!!!ONB: ESAC (Essen Associative Code) Database: ZUCCAL
!!!AMT: simple quadruple
!!!AIN: vox
!!!EED: Helmut Schaffrath
!!!EEV: 1.0
!!!GTL: II. Gau- Leuschen.
!!!URL-scan: https://www.digitale-sammlungen.de/de/view/bsb11160573?page=128
!!!ENC: Anna Maria Matuszewska
!!!EEV: 2025/03/02
*-	*-
